src/topics/icons/appbase.svg

<svg height="256" preserveAspectRatio="xMidYMid" viewBox="0 0 256 256" width="256" xmlns="http://www.w3.org/2000/svg"><path d="m127.997452 0c-70.6867571 0-127.997452 57.2750254-127.997452 127.936304 0 70.651088 57.3106949 127.936305 127.997452 127.936305 70.686757 0 128.002548-57.285217 128.002548-127.936305.005096-70.6612786-57.310695-127.936304-128.002548-127.936304zm0 248.743805c-66.7631121 0-120.86355204-54.105536-120.86355204-120.807501 0-66.7223467 54.10043994-120.81259533 120.86355204-120.81259533 66.737634 0 120.868648 54.09024863 120.868648 120.81259533 0 66.701965-54.131014 120.807501-120.868648 120.807501zm54.671152-144.227075c-4.234479 0-7.984872 2.160553-10.191286 5.447242l-40.449212-11.1237881c.101913-.8305898.188538-1.6662752.188538-2.4917693 0-9.9517905-8.066402-18.0130974-17.99781-18.0130974-9.946695 0-18.0080018 8.0613069-18.0080018 18.0130974 0 7.8778634 5.1058338 14.5939214 12.2091598 17.0092554l-3.470132 21.738013c-1.763093-.382174-3.577142-.585999-5.4676251-.585999-14.1709827 0-25.6412747 11.475387-25.6412747 25.620892 0 14.165887 11.470292 25.641275 25.6412747 25.641275 14.1506001 0 25.6514661-11.475388 25.6514661-25.641275 0-3.663767-.784729-7.1339-2.180935-10.298294l49.687613-26.018353c2.211509 3.159299 5.890563 5.238321 10.028225 5.238321 6.807779 0 12.305978-5.498198 12.305978-12.270308-.005096-6.7823-5.493103-12.265212-12.305978-12.265212zm-61.805052 41.488724c-2.838273-4.275244-6.904596-7.643464-11.714883-9.600191l3.541472-22.145664c.504469.040765.99365.061148 1.528693.061148 7.572125 0 14.038496-4.667609 16.678039-11.271562l39.827544 10.950536c-.183443.886642-.31593 1.808954-.31593 2.77203 0 1.059894.15287 2.084118.402556 3.077768z" fill="#3bc7f6"/></svg>

<?xml version="1.0" encoding="UTF-8" standalone="no"?>
<svg width="256px" height="256px" viewBox="0 0 256 256" version="1.1" xmlns="http://www.w3.org/2000/svg" xmlns:xlink="http://www.w3.org/1999/xlink" preserveAspectRatio="xMidYMid">
    <g>
        <path d="M127.997452,0 C57.3106949,0 0,57.2750254 0,127.936304 C0,198.587392 57.3106949,255.872609 127.997452,255.872609 C198.684209,255.872609 256,198.587392 256,127.936304 C256.005096,57.2750254 198.689305,0 127.997452,0 L127.997452,0 Z M127.997452,248.743805 C61.2343399,248.743805 7.13389996,194.638269 7.13389996,127.936304 C7.13389996,61.2139573 61.2343399,7.12370867 127.997452,7.12370867 C194.735086,7.12370867 248.8661,61.2139573 248.8661,127.936304 C248.8661,194.638269 194.735086,248.743805 127.997452,248.743805 L127.997452,248.743805 Z M182.668604,104.51673 C178.434125,104.51673 174.683732,106.677283 172.477318,109.963972 L132.028106,98.8401839 C132.130019,98.0095941 132.216644,97.1739087 132.216644,96.3484146 C132.216644,86.3966241 124.150242,78.3353172 114.218834,78.3353172 C104.272139,78.3353172 96.2108322,86.3966241 96.2108322,96.3484146 C96.2108322,104.226278 101.316666,110.942336 108.419992,113.35767 L104.94986,135.095683 C103.186767,134.713509 101.372718,134.509684 99.4822349,134.509684 C85.3112522,134.509684 73.8409602,145.985071 73.8409602,160.130576 C73.8409602,174.296463 85.3112522,185.771851 99.4822349,185.771851 C113.632835,185.771851 125.133701,174.296463 125.133701,160.130576 C125.133701,156.466809 124.348972,152.996676 122.952766,149.832282 L172.640379,123.813929 C174.851888,126.973228 178.530942,129.05225 182.668604,129.05225 C189.476383,129.05225 194.974582,123.554052 194.974582,116.781942 C194.969486,109.999642 189.481479,104.51673 182.668604,104.51673 L182.668604,104.51673 Z M120.863552,146.005454 C118.025279,141.73021 113.958956,138.36199 109.148669,136.405263 L112.690141,114.259599 C113.19461,114.300364 113.683791,114.320747 114.218834,114.320747 C121.790959,114.320747 128.25733,109.653138 130.896873,103.049185 L170.724417,113.999721 C170.540974,114.886363 170.408487,115.808675 170.408487,116.771751 C170.408487,117.831645 170.561357,118.855869 170.811043,119.849519 L120.863552,146.005454 L120.863552,146.005454 Z" fill="#3BC7F6"></path>
    </g>
</svg>
